!!!!SEGMENT: pl-wtm--r-242-n_noskowski-zygmunt--hej-polskiego.krn
!!!cenid: 18xx:2246
!!!COM: Noskowski, Zygmunt
!!!COM-rismid: pe106604
!!!CDT: 1846/05/02-1909/07/23
!!!CNT: Polish
!!!OTL: Hej, polskiego
!!!PDT:
!!!AGN:
!!!SMS-siglum: PL-Wtm
!!!SMS-shelfmark: R 242/N
!!!SMS-shelfwork: W
!!!SMS-variant:
!!!SMS-altvar:
!!!NIFC-rismid: 1001099678
!!!URL-scan: http://repozytorium.nifc.pl/skany/pl-wtm-nut--r242n
!!!ONB-nifc:
!!!OMD: Maestoso.
**kern	**text	**dynam	**kern	**text	**dynam
*part2	*part2	*part2	*part1	*part1	*part1
*staff2	*staff2	*	*staff1	*staff1	*
*Ibass	*	*	*Itenor	*	*
*I"Basy	*	*	*I"Tenory	*	*
*>[A,B,B1,B,C]	*>[A,B,B1,B,C]	*>[A,B,B1,B,C]	*>[A,B,B1,B,C]	*>[A,B,B1,B,C]	*>[A,B,B1,B,C]
*>A	*>A	*>A	*>A	*>A	*>A
*clefF4	*	*	*clefG	*	*
*	*	*	*ITrd7c12	*	*
*k[b-e-a-d-g-]	*	*	*k[b-e-a-d-g-]	*	*
*D-:	*	*	*D-:	*	*
*kcancel	*	*	*kcancel	*	*
*M3/4	*	*	*M3/4	*	*
=1	=1	=1	=1	=1	=1
*^	*	*	*^	*	*
!	!	!	!LO:DY:rj:b	!	!	!	!LO:DY:b:rj
8F/	8D-\	.	f	8d-/	8A-\	Hej,	f
8G-/	8D-\	.	.	8e-/	8B-\	Pol-	.
4.d-^^/	4.D-\	.	.	4.a-^^/	4.f\	-skie-	.
8A-/	8D-\	.	.	8f/	8d-\	-go!	.
=2	=2	=2	=2	=2	=2	=2	=2
8A-/	8D-\	.	.	8e-/	8c\	a	.
8G-/	8D-\	.	.	8f/	8B-\	rzę-	.
4.F/	4D-\	.	.	4.A-/	4.A-\	-si-	.
.	4C\	.	.	.	.	.	.
8F/	.	.	.	16B-/LL	8A-\	-ście	.
.	.	.	.	16c/JJ	.	.	.
=3	=3	=3	=3	=3	=3	=3	=3
8.F/	8.BB-\	.	.	8.d-/	8.A-\	Rżnij,	.
16A-/	16BB-\	.	.	16f/	16d-\	ka-	.
8Gn/	8E-\	.	.	8f/	8d-\	-pe-	.
8G/	8E-\	.	.	16e-/LL	8B-\	-lo,	.
.	.	.	.	16d-/JJ	.	.	.
8E-/	16E-\LL	.	.	16c/LL	8Gn\	w zgod-	.
.	16D-\JJ	.	.	16B-/JJ	.	.	.
16E-/LL	16C\LL	.	.	16c/LL	16A-\LL	-ny	.
16D-/JJ	16BB-\JJ	.	.	16d-/JJ	16B-\JJ	.	.
=4	=4	=4	=4	=4	=4	=4	=4
8.C/	8.AA-\	.	.	2.e-/	2.c\	takt!	.
16E-/	16C\	ka-	.	.	.	.	.
8E-/	8C\	-pe-	.	.	.	.	.
8A-/	8E-\	-lo,	.	.	.	.	.
8c/L	8A-\L	rżnij!	.	.	.	.	.
8B-/J	8G-X\J	.	.	.	.	.	.
!!LO:LB:g=original
=5	=5	=5	=5	=5	=5	=5	=5
8.An/	8.F\	.	.	8.f/	8.c\	I-	.
16B-/	16E-\	.	.	16g-/	16d-\	-dą	.
8B-/	8E-\	.	.	8g-/	8d-\	pa-	.
8A/	8F\	.	.	8f/	8c\	-ry	.
8.B-/	8.G-\	.	.	8.e-/	8.c\	i-	.
16A/	16F\	.	.	16f/	16c\	-dą	.
=6	=6	=6	=6	=6	=6	=6	=6
8An/	8F\	.	.	8f/	8c\	pa-	.
8F/	8AAn\	.	.	8e-/	8c\	-ry	.
8F/	8BB-\	.	.	8d-/	8B-\	po-	.
8E-/	8C\	.	.	8c/	8An\	-su-	.
8F/	8D-\	.	.	8B-/	8B-\	-wi-	.
8F/	8Dn\	.	.	16A-X/LL	8A-\	-ście...	.
.	.	.	.	16B-/JJ	.	.	.
=7	=7	=7	=7	=7	=7	=7	=7
8E-/	8E-\	.	.	8c/	8A-\	Sta-	.
8A-/	8E-\	.	.	8e-/	8c\	-ro-	.
(8A-/	4.E-\	.	.	(8f/	(8Bn\	-ścian-	.
4Bn/)	.	.	.	4a-/)	4dn\)	.	.
8A-/	8E-\	.	.	16gn/LL	8B\	-ko,	.
.	.	.	.	16f/JJ	.	.	.
=8	=8	=8	=8	=8	=8	=8	=8
8A-/	8E-\	.	.	16e-/LL	8c\	za-	.
.	.	.	.	16f/JJ	.	.	.
8E-/	8E-\	.	.	16e-/LL	16c\LL	-wrzem	.
.	.	.	.	16c/JJ	16A-\JJ	.	.
(4D-^^/	(4EE-\	.	.	(4B-^^/	(4Gn\	pakt!	.
8C/)	8AA-\)	.	.	8A-/)	8A-\)	.	.
8r	8ryy	.	.	8r	8ryy	.	.
*	*	*	*	*v	*v	*	*
!!LO:LB:g=original
=9	=9	=9	=9	=9	=9	=9
*	*	*	*^	*	*	*
*	*	*above	*	*	*	*	*
!	!	!	!LO:DY:a:rj	!LO:DY:rj:b	!	!	!
8A-/	8C\	O-	f	mf	2.r	.	.
8c/	8E-\	-to	.	.	.	.	.
8d-/	16F\LL	sto-	.	.	.	.	.
.	16Gn\JJ	.	.	.	.	.	.
8c/	16A-\LL	-i	.	.	.	.	.
.	16E-\JJ	.	.	.	.	.	.
8B-/	8D-\	w o-	.	.	.	.	.
8Gn/	16E-\LL	-nej	.	.	.	.	.
.	16D-\JJ	.	.	.	.	.	.
*	*	*	*v	*v	*	*	*
=10	=10	=10	=10	=10	=10	=10
*	*	*	*	*^	*	*
!	!	!	!	!	!	!	!LO:DY:b:rj
8.A-/L	4AA-\	do-	.	8c/	8A-\	O-	mf
.	.	.	.	8e-/	8c\	-to	.
16E-/Jk	.	.	.	.	.	.	.
4A-/	4AA-\	-bie,	.	8f/	8d-\	sto-	.
.	.	.	.	8e-/	8c\	-i	.
4r	4ryy	.	.	8c/	8A-\	w o-	.
.	.	.	.	8d-/	8B-\	-nej	.
=11	=11	=11	=11	=11	=11	=11	=11
*	*	*^	*	*	*	*	*
*	*	*above	*	*	*	*	*	*
8B-/	8E-\	Wiel-	.	.	4e-/	4Gn\	do-	.
8d-/	8B-\	-biąc	.	.	.	.	.	.
*	*	*	*below	*	*	*	*	*
4.e-/	8Gn\	ho-	wiel-	.	8E-/	8E-\	-bie,	.
.	8A-\	.	-biąc	.	8r	8ryy	.	.
.	16G\LL	.	ho-	.	8B-/	8B-\	Wiel-	.
.	16F\JJ	.	.	.	.	.	.	.
8Gn/	16E-\LL	-żych	-żych	.	16d-/LL	16d-\LL	-biąc	.
.	16D-\JJ	.	.	.	16B-/JJ	16B-\JJ	.	.
=12	=12	=12	=12	=12	=12	=12	=12	=12
8A-/	16C\LL	wdzię-	.	.	8A-/	8A-\	ho-	.
.	16E-\JJ	.	.	.	.	.	.	.
8d-/	16F\LL	-ków	.	.	16A-/LL	16A-\LL	-żych	.
.	16Gn\JJ	.	.	.	16B-/JJ	16B-\JJ	.	.
4c/	4A-\	rój,	.	.	8c/	8c\	wdzię-	.
.	.	.	.	.	16c/LL	16c\LL	-ków	.
.	.	.	.	.	16d-/JJ	16d-\JJ	.	.
!	!	!	!	!LO:HP:b	!	!	!	!
8c/	8AA-\	Cnej	Cnej	>	8e-/	8e-\	rój	.
16B-/LL	8BB-\	u-	u-	.	8r	8ryy	.	.
16A-/JJ	.	.	.	]	.	.	.	.
!!LO:LB:g=original
=13	=13	=13	=13	=13	=13	=13	=13	=13
*	*	*	*	*^	*	*	*	*
!	!	!	!	!LO:DY:a:rj	!LO:DY:b:rj	!	!	!	!LO:DY:b:rj
4.Gn/	2C\	-ro-	-ro-	p	p	8en/	8c\	Cnej	p
.	.	.	.	.	.	8dn/	8Bn\	u-	.
.	.	.	.	.	.	4.gn/	4.en\	-ro-	.
16Bn/LL	.	-dy	.	.	.	.	.	.	.
16An/JJ	.	.	.	.	.	.	.	.	.
8G/	4C\	cnej	-dy	.	.	.	.	.	.
16A/LL	.	u-	.	.	.	8e/	8c\	-dy	.
16G/JJ	.	.	.	.	.	.	.	.	.
*	*	*	*	*v	*v	*	*	*	*
=14	=14	=14	=14	=14	=14	=14	=14	=14
*	*	*	*	*	*	*	*^	*
*	*	*	*	*	*	*	*above	*below	*
8F/	8C\	-ro-	w twej	.	8dn/	8Bn\	w twej	w twej	.
16Gn/LL	8C\	-dy	o-	.	8en/	16B\LL	o-	o-	.
16F/JJ	.	.	.	.	.	16An\JJ	.	.	.
8En/	4C\	w twej	-so-	.	4.c/	8Gn\	-so-	-so-	.
16Dn/LL	.	o-	.	.	.	16F\LL	.	-bie	.
16E/JJ	.	.	.	.	.	16G\JJ	.	.	.
8E/	4BB-X\	-so-	-bie,	.	.	8G\	.	Słu-	.
8G/	.	-bie,	.	.	16d/LL	8c\	-bie,	-ga,	.
.	.	.	.	.	16e/JJ	.	.	.	.
*	*	*v	*v	*	*	*	*	*	*
=15	=15	=15	=15	=15	=15	=15	=15	=15
*	*	*above	*	*	*	*	*	*
!	!	!	!LO:HP:b	!	!	!	!	!LO:HP:b
8F/	8AA-\	Słu-	<	8f/	8c\	Słu-	słu-	<
8G-X/	8AA-\	-ga	.	8e-X/	8c\	-ga	-ga	[
!	!	!	!LO:DY:b	!	!	!	!	!LO:DY:b:rj
4.B-X/	4.E-\	i	[ mf	4.g-X/	4.c\	i	i	mf
*	*	*	*	*	*	*below	*	*
8A-/	8F\	.	.	8f/	8c\	pod-	.	.
*	*	*	*	*	*	*v	*v	*
=16	=16	=16	=16	=16	=16	=16	=16
(8G-/L	(8G-\L	.	.	(8e-/L	(8B-\L	-nó-	.
8A-/	8A-\	.	.	8f/	8c\	.	.
8G-/J)	8G-\J)	.	.	8e-/J)	8B-\J)	.	.
!	!	!	!	!	!	!	!LO:HP:b
8E-/	8E-\	.	.	8c/	8G-\	-żek	<
!	!	!	!LO:HP:b	!	!	!	!
4E-/	8D-\L	.	<	8B-/L	4G-\	twój.	.
.	8C\J	.	[[	8A-/J	.	.	[
!!LO:LB:g=original
=17	=17	=17	=17	=17	=17	=17	=17
*	*	*^	*	*	*	*	*
!	!	!	!	!LO:DY:a:rj	!	!	!	!LO:DY:b:rj
8F/	8BB-\	.	Mo-	f	8d-/	8B-\	Mo-	f
8A-/	16AA-\LL	.	-ścia	.	8e-/	8c\	-ścia	.
.	16GG-\JJ	.	.	.	.	.	.	.
4.A-^^/	16FF\LL	.	pan-	.	4.a-^^/	4.d-\	pan-	.
.	16AA-\JJ	.	.	.	.	.	.	.
.	16BB-\LL	.	-no	.	.	.	.	.
.	16C\JJ	.	.	.	.	.	.	.
.	[4D-\	.	dłoń	.	.	.	.	.
8A-/	.	.	.	.	8f/	8d-\	-no,	.
*	*	*v	*v	*	*	*	*	*
=18	=18	=18	=18	=18	=18	=18	=18
8Gn/	8D-\]	.	.	8e-/	8B-\	dłoń	.
8G-X/	8D-\	.	.	8f/	8A-\	li-	.
4.F/	4D-\	.	.	4.A-/	4.A-\	-ljo-	.
.	4C\	.	.	.	.	.	.
8F/	.	.	.	16B-/LL	8A-\	-wą	.
.	.	.	.	16c/JJ	.	.	.
=19	=19	=19	=19	=19	=19	=19	=19
8.F/	8.BB-\	.	.	8.d-/	8.A-\	W mę-	.
16A-/	16BB-\	.	.	16f/	16d-\	-zkiej	.
8Gn/	8E-\	.	.	8f/	8d-\	dło-	.
8G/	8E-\	.	.	16e-/LL	8B-\	-ni	.
.	.	.	.	16d-/JJ	.	.	.
8E-/	16E-\LL	.	.	16c/LL	8Gn\	śmia-	.
.	16D-\JJ	.	.	16B-/JJ	.	.	.
16E-/LL	16C\LL	.	.	16c/LL	16A-\LL	-ło	.
16D-/JJ	16BB-\JJ	.	.	16d-/JJ	16B-\JJ	.	.
=20	=20	=20	=20	=20	=20	=20	=20
8.C/	8.AA-\	.	.	2.e-/	2.c\	złóż,	.
16E-/	16C\	dłoń	.	.	.	.	.
8E-/	8C\	śmia-	.	.	.	.	.
8A-/	8E-\	-ło	.	.	.	.	.
8c/L	8A-\L	złóż,	.	.	.	.	.
8B-/J	8G-X\J	.	.	.	.	.	.
!!LO:PB:g=original
=21	=21	=21	=21	=21	=21	=21	=21
8.An/	8.F\	.	.	8.f/	8.c\	Idź	.
16B-/	16E-\	.	.	16g-/	16d-\	z wznie-	.
8B-/	8E-\	.	.	8g-/	8d-\	-sio-	.
8A/	8F\	.	.	8f/	8c\	-ną	.
8.B-^^/	8.G-\	.	.	8.e-^^/	8.c\	dum-	.
16A/	16F\	.	.	16f/	16c\	-nie	.
=22	=22	=22	=22	=22	=22	=22	=22
*	*	*^	*	*	*	*	*
(8An/L	8F\	.	gło-	.	(<8f/L	4c\	gło-	.
8F/J)	8AAn\	.	-wą	.	8e-/J)	.	.	.
4F/	8BB-\	.	dum-	.	4d-/	4B-\	-wą,	.
.	16D-\LL	.	-nie	.	.	.	.	.
.	16F\JJ	.	.	.	.	.	.	.
8B-/	8B-\	.	.	.	8d-/	8d-\	Idź	.
8c-X/	8A\	.	.	.	16e-/LL	16e-\LL	z wznie-	.
.	.	.	.	.	16f/JJ	16d-\JJ	.	.
*	*	*v	*v	*	*	*	*	*
=23	=23	=23	=23	=23	=23	=23	=23
8B-/	8G-\	.	.	8g-/	8d-\	-sio-	.
8c-X/	8A-\	.	.	8f/	8d-\	-ną	.
4.d-^^/	4.c-X\	.	.	4.a-^^/	4.f\	dum-	.
8d-/	8B-\	.	.	8g-/	8d-\	-nie	.
!!LO:LB:g=original
=24	=24	=24	=24	=24	=24	=24	=24
8G-/L	8G-\L	gło-	.	2d-/	2B-\	gło-	.
!	!	!	!	!	!	!	!LO:HP:a
8F/J	8F\J	.	.	.	.	.	>
8A-/	8A-\	-wą	.	.	.	.	.
!	!	!	!LO:HP:a	!	!	!	!
8G-/	8G-\	wznie-	>	.	.	.	.
8D-/	8D-\	-sio-	.	4d-/	4B-\	-wą	]
8E-/	8E-\	-ną	]	.	.	.	.
=25	=25	=25	=25	=25	=25	=25	=25
!	!	!	!LO:DY:b:rj	!	!	!	!LO:DY:a:rj
8.F/	8.F\	.	p	8.c/	8.An\	I	p
16F/	16E-\	.	.	16f/	16A\	ru-	.
4F/	8D-\L	.	.	8f/L	8B-\L	-mień-	.
.	8C\J	.	.	8e-/J	8A\J	.	.
4F/	8BB-\L	.	.	8d-/L	4B-\	-cem	.
.	8D-\J	.	.	8B-/J	.	.	.
=26	=26	=26	=26	=26	=26	=26	=26
*	*	*^	*	*	*	*	*
8.F/	8.F\	.	I	.	8.An/	8.An\	i	.
16E-/	16FF\	.	ru-	.	16d-/	16A\	ru-	.
4E-/	8FF\	.	-mień-	.	8d-/L	8A\L	-mień-	.
.	16GGn\LL	.	-cem	.	8c/J	8F\J	.	.
.	16AAn\JJ	.	.	.	.	.	.	.
8D-/L	8BB-\L	.	z róż	.	8B-/L	4F\	-cem	.
8E-/J	8C\J	.	.	.	8An/J	.	.	.
*	*	*v	*v	*	*	*	*	*
=27	=27	=27	=27	=27	=27	=27	=27
[4F/	(4E-\	I	.	(4c/	(4An\	z róż	.
8F/]	8D-\)	.	.	8B-/)	8B-\)	.	.
!	!	!	!	!	!	!	!LO:HP:a
.	.	.	.	.	.	.	<
!	!	!	!LO:HP:b	!	!	!	!
8G-/	8G-\	.	<	8B-/	8B-\	ru-	.
8A-/	8F\	.	.	8e-/	8c-X\	-mień-	.
8B-/	8B-\	.	.	8dn/	8B-\	-cem	.
!!LO:LB:g=original
=28	=28	=28	=28	=28	=28	=28	=28
*	*	*	*	*	*	*^	*
*	*	*	*	*	*	*above	*below	*
2B-/	2A-\	.	.	2f/	2dn\	.	z róż,	.
!	!	!	!LO:DY:b:rj	!	!	!	!	!LO:DY:b:rj
8B-/	8G-\	.	f	8e-/	8e-\	Idź	I	f
8A-/	8F\	.	.	8f/	8d\	z wznie-	ru-	.
=29	=29	=29	=29	=29	=29	=29	=29	=29
4B-/	4E-\	.	.	8a-/	8e-\L	-sio-	-mień-	.
.	.	.	.	8g-/	8B-\J	-ną	.	.
4E-/	4E-\	.	.	8B-/	4G-\	dum-	-cem	.
.	.	.	.	8f/	.	-nie	.	>
4r	4ryy	.	.	8e-/	4r	gło-	.	.
.	.	.	.	(16B-/LL	.	-wą	.	]
.	.	.	.	16c/JJ)	.	.	.	.
*	*	*	*	*	*	*v	*v	*
=30	=30	=30	=30	=30	=30	=30	=30
*	*	*	*	*	*	*	*^
*	*	*	*	*	*	*below	*	*
!	!	!	!LO:DY:a:rj	!	!	!	!LO:DY:a:rj	!LO:DY:b:rj
8E-/	8BB-\	I	mf	8d-/	8Gn\	I	mf	mf
8E-/	8E-\	ru-	.	16c/LL	8G\	ru-	.	.
.	.	.	.	16d-/JJ	.	.	.	.
!	!	!	!LO:HP:a	!	!	!	!LO:HP:a	!LO:HP:b
8C/	8AA-\	-mień-	<	4e-/	4G-X\	-mień-	<	<
8D-/	8BB-\	-cem	.	.	.	.	.	.
8E-/L	8C\L	z róż.	[	4A-/	4G-\	-cem.	[	[
8G-/J	8E-\J	.	.	.	.	.	.	.
*	*	*	*	*	*	*	*v	*v
=31	=31	=31	=31	=31	=31	=31	=31
*	*	*^	*	*	*	*	*
!	!	!	!	!LO:DY:b:rj	!	!	!	!LO:DY:b:rj
8F/	4.D-\	.	Sta-	f	8d-/	8A-\	Sta-	f
8G-/	.	.	.	.	8e-/	8B-\	-ro-	.
4.d-^^/	.	.	.	.	4.a-^^/	4.f\	-ścian-	.
.	16BB-\LL	.	-ro-	.	.	.	.	.
.	16C\JJ	.	.	.	.	.	.	.
.	8D-\	.	-ścian-	.	.	.	.	.
8A-/	8F\	.	-ko,	.	8f/	8d-\	-ko,	.
*	*	*v	*v	*	*	*	*	*
!!LO:LB:g=original
=32	=32	=32	=32	=32	=32	=32	=32
8A-/	8A-\	.	.	8e-/	8c\	ja-	.
8G-/	8AA-\	.	.	8f/	8B-\	-ko	.
4.F/	4D-\	.	.	4.A-/	4.A-\	ży-	.
.	4C\	.	.	.	.	.	.
8F/	.	.	.	16B-/LL	8A-\	-wo,	.
.	.	.	.	16c/JJ	.	.	.
=33	=33	=33	=33	=33	=33	=33	=33
8.F/	8.BB-\	.	.	8.d-/	8.B-\	Z pod	.
16B-/	16AA-\	.	.	16f/	16d-\	spusz-	.
8B-/	8GG-\	.	.	8f/	8d-\	-czo-	.
8G-/	8BB-\	.	.	16e-/LL	8B-\	-nych	.
.	.	.	.	16d-/JJ	.	.	.
8G-/	8E-\	.	.	16c/LL	8G-\	spoj-	.
.	.	.	.	16B-/JJ	.	.	.
8G-/	8D-\	.	.	16c/LL	16A-\LL	-rzyj	.
.	.	.	.	16d-/JJ	16B-\JJ	.	.
=34	=34	=34	=34	=34	=34	=34	=34
*	*	*^	*	*	*	*^	*
*	*	*above	*below	*	*	*	*above	*below	*
4.G-/	8.C\	spoj-	Z pod	.	2.e-/	8.B-\	rzęs!	spoj-	.
.	16BB-\	.	spusz-	.	.	16d-\	.	-rzyj	.
.	8AA-\	.	-czo-	.	.	2c\	.	rzęs!	.
8A-/	16C\LL	-rzyj	-nych	.	.	.	.	.	.
.	16E-\JJ	.	.	.	.	.	.	.	.
8c/L	8A-\L	rzęs!	rzęs!	.	.	.	.	.	.
8B-/J	8G-\J	.	.	.	.	.	.	.	.
*	*	*v	*v	*	*	*	*v	*v	*
!!LO:LB:g=original
=35	=35	=35	=35	=35	=35	=35	=35
*	*	*	*	*	*	*below	*
8An/	8F\	.	.	8f/	8c\	Patrz,	.
16r	16ryy	.	.	16r	16ryy	.	.
16B-/	16E-\	.	.	16g-/	16d-\	roz-	.
8B-/	8E-\	.	.	8g-/	8d-\	-pry-	.
8A/	8F\	.	.	8f/	8c\	-ska	.
8.B-/	8.G-\	.	.	8.e-/	8.c\	się	.
16A/	16F\	.	.	16f/	16c\	roz-	.
=36	=36	=36	=36	=36	=36	=36	=36
8An/	8F\	.	.	8f/	8c\	-prys-	.
8F/	8AAn\	.	.	8e-/	8c\	-ka	.
8F/	8BB-\	.	.	8dn/	8B-\	się	.
8A-X/	8F\	.	.	16c/LL	8B-\	og-	.
!	!	!	!LO:HP:b	!	!	!	!LO:HP:b
.	.	.	<	16d/JJ	.	.	<
8B-/	8G-\	.	.	8e-/	8B-\	-ni-	.
8B-/	8E-\	.	.	16f/LL	8e-\	-wo	.
.	.	.	[[	16g-/JJ	.	.	[[
=37	=37	=37	=37	=37	=37	=37	=37
(8A-/	(8F\	.	[	(8a-/	4.d-\	Słod-	.
4G-/)	4G-\)	.	.	4b-/)	.	.	.
8A-/	8F\	.	.	8a-/	8d-\	-kich	.
8Gn/	8E-\	.	.	8f/	8d-\	słod-	.
8E-/	8BB-\	.	.	16e-/LL	8Gn\	-kich,	.
.	.	.	.	16d-/JJ	.	.	.
=38	=38	=38	=38	=38	=38	=38	=38
8B-/	8AA-\	.	.	16B-/LL	8G-X\	mięk-	.
.	.	.	.	16c/JJ	.	.	.
8E-/	8AA-\	.	.	16g-/LL	8B-\	-kich	.
.	.	.	.	16f/JJ	.	.	.
!	!	!	!	!	!LO:S:s=1:note:problem:note-level slur	!	!
(4G-X^^/	(4AA-\	.	.	(4e-^^/	(>8c\L	więz.	.
.	.	.	.	.	8B-\J	.	.
8F/)	8D-\)	.	.	8d-/)	8A-\)	.	.
8r	8ryy	.	.	8r	8ryy	.	.
*	*	*	*	*v	*v	*	*
!!LO:LB:g=original
=39||	=39||	=39||	=39||	=39||	=39||	=39||
*	*	*^	*	*	*	*
!	!	!	!	!LO:DY:a	!	!	!
4r	2.r	.	.	f	2.r	.	.
*	*	*above	*	*	*	*	*
8.A-/	.	Od-	.	.	.	.	.
16A-/	.	-bi-	.	.	.	.	.
[4d-/	.	-ja-	.	.	.	.	.
=40	=40	=40	=40	=40	=40	=40	=40
*	*	*	*	*	*^	*^	*
*	*	*	*below	*	*	*	*	*	*
!	!	!	!	!LO:DY:b:rj	!	!	!	!	!
4d-/]	8.F\	.	Od-	f	4r	2.rg	.	.	.
.	16F\	.	-bi-	.	.	.	.	.	.
[2c-X/	2A-\	-ny	-ja-	.	4r	.	.	.	.
*	*	*	*	*	*	*	*above	*	*
!	!	!	!	!	!	!	!	!	!LO:DY:a:rj
.	.	.	.	.	8.f/	.	Od-	.	f
.	.	.	.	.	16f/	.	-bi-	.	.
=41	=41	=41	=41	=41	=41	=41	=41	=41	=41
4c-/]	4F\	.	-ny	.	[2.a-/	4r	-ja-	.	.
!	!	!	!	!	!	!	!	!	!LO:DY:b:rj
*	*	*below	*	*	*	*	*	*below	*
4.c-X/	4.F\	Od-	.	.	.	4.d-\	.	Od-	f
8c-/	8E-\	-bi-	.	.	.	8e-\	.	-bi-	.
*	*	*v	*v	*	*	*	*	*	*
=42	=42	=42	=42	=42	=42	=42	=42	=42
4c-X/	4D-\	-ja-	.	4a-/]	4f\	.	-ja-	.
4c-/	4A-\	-ny	.	4f/	4d-\	-ny	-ny	.
*	*	*	*	*	*	*below	*	*
!	!	!	!LO:DY:b:rj	!	!	!	!	!LO:DY:b:rj
8.A-/	8.F\	.	p	8.d-/	8.c-X\	Od-	.	p
16A-/	16F\	.	.	16d-/	16c-\	-bi-	.	.
!	!	!	!	!	!	!	!	!LO:HP:b
.	.	.	.	.	.	.	.	<
*	*	*	*	*	*	*v	*v	*
=43	=43	=43	=43	=43	=43	=43	=43
2.A-/	2.G-\	.	.	2.e-/	2.c-X\	-ja-	[
!	!	!	!	!	!	!	!LO:HP:b
.	.	.	.	.	.	.	>
.	.	.	.	.	.	.	]
*v	*v	*	*	*	*	*	*
*	*	*	*v	*v	*	*
=44||	=44||	=44||	=44||	=44||	=44||
*k[b-e-a-d-g-c-]	*	*	*k[b-e-a-d-g-c-]	*	*
*^	*	*	*^	*	*
2A-/	2F\	.	.	2d-/	2c-\	-ny!...	.
!	!	!	!LO:DY:b:rj	!	!	!	!
8.F/	8.D-\	Od-	p	4r	4ryy	.	.
16F/	16D-\	-bi-	.	.	.	.	.
=45!|:	=45!|:	=45!|:	=45!|:	=45!|:	=45!|:	=45!|:	=45!|:
*>B	*>B	*>B	*>B	*>B	*>B	*>B	*>B
!	!	!	!	!LO:TX:a:B:t=Tranquillo.	!	!	!LO:DY:b:rj
4G-/	4GG-\	-ja-	.	2d-/	2B-\	klasz-	p
[2D-/	[2GG-\	-ny	.	.	.	.	.
.	.	.	.	8G-/L	8E-\L	-czą	.
.	.	.	.	8A-/J	8F\J	.	.
!!LO:PB:g=original
=46	=46	=46	=46	=46	=46	=46	=46
4D-/]	4GG-\]	.	.	8B-/L	8G-\L	w dło-	.
.	.	.	.	8e-/J	8c-\J	.	.
8.E-/	8.GG-\	Od-	.	4.c-/	4.A-\	-nie,	.
16F/	16GG-\	-bi-	.	.	.	.	.
[4D-/	[4GG-\	-ja-	.	.	.	.	.
.	.	.	.	8B-/	8G-\	Roz-	.
=47	=47	=47	=47	=47	=47	=47	=47
2D-/]	2GG-\]	.	.	8A-/L	8F\L	-wi-	.
.	.	.	.	8c-/J	8A-\J	.	.
.	.	.	.	8e-/	8c-\	-ja	.
.	.	.	.	8f/	8d-\	się	.
[4D-/	[4GG-\	-ny!...	.	8e-/	8c-\	skrzę-	.
.	.	.	.	16g-/LL	8A-\	-tny	.
.	.	.	.	16f/JJ	.	.	.
=48	=48	=48	=48	=48	=48	=48	=48
2D-/]	2GG-\]	.	.	(4d-/	(4B-\	wąż,	.
.	.	.	.	4B-/)	4G-\)	.	.
!	!	!	!LO:HP:b	!	!	!	!LO:HP:b
8G-/	8G-\	I	<	8d-/	8B-\	I	<
8G-/	8E-\	ku	[[	8e-/	8cn\	ku	[[
=49	=49	=49	=49	=49	=49	=49	=49
8F/	8BB-\	róż-	.	4.f/	4.d-\	róż-	.
8F/	8BB-\	-nej	.	.	.	.	.
4F/	4BB-\	dą-	.	.	.	.	.
.	.	.	.	8cn/	8An\	-nej	.
4F/	4BB-\	-żą	.	8e-/	8cn\	dą-	.
.	.	.	.	8d-/	8B-\	-żą	.
!!LO:LB:g=original
=50	=50	=50	=50	=50	=50	=50	=50
!	!	!	!	!LO:TX:t=P:problem:8b- i 8dd- poprawione na 4b-	!	!	!
8E-/L	8Cn\L	.	.	8g-/L	4B-\	stro-	.
8F/J	8D-\J	.	.	8f/J	.	.	.
4G-/	4E-\	.	.	4.e-/	4.B-\	-nie	.
4E-/	4GG-\	.	.	.	.	.	.
.	.	.	.	8B-/	8B-\	Dzie-	.
=51	=51	=51	=51	=51	=51	=51	=51
*	*	*	*^	*	*	*	*
4E-/	4AA-\	.	.	.	8cn/L	8A-\L	-wi-	.
.	.	.	.	.	8d-/J	8G-\J	.	.
!	!	!	!LO:HP:a	!LO:HP:b	!	!	!	!LO:HP:b
.	.	.	>	>	.	.	.	>
4D-/	4.AA-\	.	.	.	4.B-/	4F\	-ca	.
4E-/	.	.	]	.	.	4G-\	.	.
.	8AA-\	.	.	]	8c/	.	i	]
*	*	*	*v	*v	*	*	*	*
=52	=52	=52	=52	=52	=52	=52	=52
!LO:TX:t=1a	!	!	!	!	!	!	!
*>B1	*>B1	*>B1	*>B1	*>B1	*>B1	*>B1	*>B1
(4E-/	2D-\	.	.	(4A-/	(4G-\	mąż.	.
4F/)	.	.	.	4d-/)	4F\)	.	.
8.F/	8.D-\	Od-	.	4r	4ryy	.	.
16F/	16D-\	-bi	.	.	.	.	.
=53:|!	=53:|!	=53:|!	=53:|!	=53:|!	=53:|!	=53:|!	=53:|!
*>C	*>C	*>C	*>C	*>C	*>C	*>C	*>C
(4E-/	2D-\	.	.	(4A-/	(4G-\	mąż.	.
4F/)	.	.	.	4d-/)	4F\)	.	.
!	!	!	!LO:DY:a:rj	!	!	!	!
4r	8D-\	Lecz	mf	4r	4ryy	.	.
.	8E-\	nie-	.	.	.	.	.
*	*	*	*	*v	*v	*	*
=54	=54	=54	=54	=54	=54	=54
2.r	8G-\	-dłu-	.	2.r	.	.
.	8F\	-go	.	.	.	.
.	(4c-\	wir	.	.	.	.
.	8B-\)	.	.	.	.	.
.	8F\	się	.	.	.	.
!!LO:LB:g=original
=55	=55	=55	=55	=55	=55	=55
*	*	*^	*	*	*	*
*	*	*	*below	*	*	*	*
4rd	(>8G-\L	.	dą-	.	2.r	.	.
.	8E-\J)	.	.	.	.	.	.
4rd	4D-\	.	-sa,	.	.	.	.
*	*	*above	*	*	*	*	*
!	!	!	!	!LO:DY:a:rj	!	!	!
8G-/	8BB-\	Ry-	Ry-	mf	.	.	.
8A-/	8D-\	-cerz	-cerz	.	.	.	.
=56	=56	=56	=56	=56	=56	=56	=56
8c-/	8E-\	ry-	ry-	.	2.r	.	.
8B-/	8F-X\	-cerz	-cerz	.	.	.	.
4.e-/	4G-\	twój	twój	.	.	.	.
.	4F-\	.	po-	.	.	.	.
8d-/	.	po-	.	.	.	.	.
=57	=57	=57	=57	=57	=57	=57	=57
8c-/	(4E-\	-my-	-my-	.	2.r	.	.
8B-/	.	-ka	.	.	.	.	.
2G-/	4F-X\)	już,	.	.	.	.	.
.	8E-\L	.	-ka,	.	.	.	.
.	8D-\J	.	.	.	.	.	.
*	*	*v	*v	*	*	*	*
=58	=58	=58	=58	=58	=58	=58
*	*	*	*	*^	*	*
!	!	!	!LO:DY:b:rj	!	!	!	!
8.G-/	8.C-\	.	f	8.e-/	8.c-\	I	f
16G-/	16C-\	.	.	16f-X/	16d-\	ju-	.
8G-/	8C-\	.	.	8g-/	8e-\	-nac-	.
8G-/	8C-\	.	.	8a-/	8f-X\	-ko	.
8G-/	8C-\	.	.	8f-/	8d-\	krę-	.
8G-/	8C-\	.	.	8g-/	8e-\	-ci	.
!!LO:LB:g=original
=59	=59	=59	=59	=59	=59	=59	=59
8G-/	8C-\	.	.	8e-/	8c-\	wą-	.
8G-/	8C-\	.	.	8g-/	8e-\	-sa	.
8.G-^^/	8.C-\	.	.	8.f-X^^/	8.d-\	Ty	.
16G-/	16C-\	.	.	16e-/	16c-\	mu	.
8G-/	8C-\	.	.	8d-/	8B-\	do-	.
8G-/	8C-\	.	.	8f-/	8d-\	-brze	.
=60	=60	=60	=60	=60	=60	=60	=60
8G-/L	8C-\L	.	.	4e-/	4c-\	wróż.	.
8Gn/J	8BB-\J	.	.	.	.	.	.
8.A-/	8.AA-\	.	.	8.c-/	8.c-\	Pod-	.
16E-/	16AA-\	.	.	16d-/	16B-\	-go-	.
8A-/	8AA-\	.	.	8e-/	8c-\	-lo-	.
8G/	8AA-\	.	.	8f-X/	8d-\	-ną	.
=61	=61	=61	=61	=61	=61	=61	=61
8F-X/	8AA-\	.	.	8d-/	8B-\	wstrzą-	.
8Gn/	8AA-\	.	.	8f-X/	8d-\	-sa	.
8A-/	8AA-\	.	.	8e-/	8c-\	gło-	.
8F-/	8AA-\	.	.	8d-/	8B-\	-wą	.
8E-/	8AA-\	.	.	8c-/	8A-\	I	.
8E-/	8D-\	.	.	8B-/	8Gn\	wy-	.
=62	=62	=62	=62	=62	=62	=62	=62
8.E-/	8.C-\	.	.	8.A-/	8.A-\	-lo-	.
16Gn/	16E-\	.	.	16B-/	16B-\	-ty	.
4A-/	4A-\	.	.	4c-/	4c-\	rzu-	.
4A-/	4G-X\	.	.	4e-/	4c-\	-ca	.
!!LO:LB:g=original
=63	=63	=63	=63	=63	=63	=63	=63
!	!	!	!LO:HP:b	!	!	!	!LO:HP:a
(4A-/	(4F\	.	>	2.d-/	2.c-\	w tył	>
4G-X/	4E-\	.	.	.	.	.	.
4F/)	4D-\)	.	]]	.	.	.	]]
=64	=64	=64	=64	=64	=64	=64	=64
!	!	!	!LO:DY:a:rj	!	!	!	!LO:DY:a:rj
(4G-/	2GG-\	.	p	2d-/	2B-\	Te-	p
4D-/)	.	.	.	.	.	.	.
4D-/	4GG-\	.	.	8G-/L	8E-\L	-raz	.
.	.	.	.	8A-/J	8F\J	.	.
=65	=65	=65	=65	=65	=65	=65	=65
4D-/	4GG-\	z pod	.	8B-/	8G-\	z pod	.
.	.	.	.	8e-/	8c-\	twych	.
2D-/	2GG-\	stóp	.	4.c-/	4.A-\	stóp,	.
.	.	.	.	8B-/	8G-\	kró-	.
=66	=66	=66	=66	=66	=66	=66	=66
2D-/	2GG-\	zmia-	.	8A-/	8F\	-lo-	.
.	.	.	.	8c-/	8A-\	-wo,	.
.	.	.	.	8e-/	8c-\	Czap-	.
.	.	.	.	8f/	8d-\	-ką	.
4D-/	4GG-\	-ta	.	8e-/	8c-\	zmia-	.
.	.	.	.	16g-/LL	8A-\	-ta	.
.	.	.	.	16f/JJ	.	.	.
=67	=67	=67	=67	=67	=67	=67	=67
(4D-/	(4GG-\	pył!	.	2d-/	2B-\	pył!	.
4G-/)	4G-\)	.	.	.	.	.	.
!	!	!	!LO:HP:b	!	!	!	!
8G-/	8E-\	.	<	8e-/	8c-\	W o-	.
!	!	!	!	!	!	!	!LO:HP:b
.	.	.	.	.	.	.	<
8G-/	8D-\	.	[[	8f-X/	8d-\	-czach	[[
!!LO:LB:g=original
=68	=68	=68	=68	=68	=68	=68	=68
*	*	*	*^	*	*	*	*
!	!	!	!LO:DY:a:rj	!LO:DY:b:rj	!	!	!	!LO:DY:b:rj
2G-/	2C-\	.	mf	mf	2g-/	2e-\	zer-	mf
4G-/	4C-\	.	.	.	8c-/L	8A-\L	-ka	.
.	.	.	.	.	8d-/J	8B-\J	.	.
*	*	*	*v	*v	*	*	*	*
=69	=69	=69	=69	=69	=69	=69	=69
!LO:TX:t=P:problem:8C- i 8C- poprawione na 2C-	!	!	!	!	!	!	!
8G-/	2C-\	śmie-	.	8e-/	8c-\	co-	.
8A-/	.	.	.	8f-X/	8d-\	-raz	.
4B-/	.	.	.	4a-/	4f-X\	śmie-	.
8c-/	8C-\	-lej	.	8g-/	8e-\	-lej	.
!	!	!	!LO:DY:b:rj	!	!	!	!LO:DY:b:rj
8G-/	8C-\	.	f	8e-/	8c-\	U-	f
=70	=70	=70	=70	=70	=70	=70	=70
4G-/	8E-\L	.	.	8g-/L	8c-\L	-śmiech-	.
.	8F-X\J	.	.	8B-/J	8B-\J	.	.
8G-/	8E-\	.	.	8c-/	8c-\	-nij	.
8B-/	8G-\	.	.	8d-/	8d-\	się	.
8c-/	8c-\	.	.	8e-/	8e-\	aść-	.
8c-/	8A-\	.	.	8f-X/	8f-\	-ka	.
=71	=71	=71	=71	=71	=71	=71	=71
!	!	!	!LO:HP:b	!	!	!	!LO:HP:b
(2c-/	(2c-\	.	<	(2g-/	2.e-\	doń!	<
4d-/)	4B-\)	.	[	4gn/)	.	.	[
=72	=72	=72	=72	=72	=72	=72	=72
!	!	!	!LO:DY:b:rj	!	!	!	!LO:DY:b:rj
4e-/	4d-\	.	ff	4b-/	4gn\	Patrz:	ff
8r	8ryy	.	.	8r	8ryy	.	.
!LO:TX:b:i:t=pesante	!	!	!	!LO:TX:a:i:t=pesante	!	!	!
8c-/	8c-\	.	.	8a-/	8e-\	na	.
8c-/	8A-\	.	.	8e-/	8e-\	gło-	.
8A-/	8BB-\	.	.	8f/	8dn\	-wni	.
!!LO:PB:g=original
=73	=73	=73	=73	=73	=73	=73	=73
*	*	*	*^	*	*	*	*
8G-/	8E-\	.	.	.	8g-X/	8B-\	ka-	.
!	!	!	!	!LO:HP:b	!	!	!	!LO:HP:b
8A-/	8F\	.	.	>	8dn/	8B-\	-ra-	>
!	!	!	!LO:HP:a	!	!	!	!	!
.	.	.	>	.	.	.	.	.
4B-/	4G-\	.	.	.	4.e-/	4.B-\	-be-	.
4E-/	4GG-\	.	]	]	.	.	.	.
.	.	.	.	.	8d-X/	8B-\	-li	]
*	*	*	*v	*v	*	*	*	*
=74	=74	=74	=74	=74	=74	=74	=74
*	*	*	*	*	*	*^	*
*	*	*	*	*	*	*above	*below	*
!	!	!	!LO:DY:b:rj	!	!	!	!	!LO:DY:b:rj
4.E-/	4.AA-\	.	p	4.cn/	8B-\	Ry-	Ry-	p
.	.	.	.	.	8A-\	.	-cerz	.
.	.	.	.	.	8G-\	.	o-	.
8E-/	8AA-\	.	.	16B-/LL	8G-\	-cerz	-parł	.
.	.	.	.	16c/JJ	.	.	.	.
!	!	!	!	!LO:TX:t=P:problem:8a- poprawione na 8f	!	!	!	!
8A-/	8AA-\	.	.	8d-/	8F\	o-	o-	.
8Gn/	8AA-\	.	.	16c/LL	8B-\	-parł	-parł	.
.	.	.	.	16d-/JJ	.	.	.	.
=75	=75	=75	=75	=75	=75	=75	=75	=75
*	*	*	*^	*	*	*	*	*
!	!LO:S:s=1:note:problem:note-level slur	!	!LO:HP:a	!LO:HP:b	!	!	!	!	!LO:HP:b
2.G-X/	(>4AA-\	.	<	<	2.e-/	(4cn\	dłoń.	dłoń.	<
!	!	!	!	!	!	!	!	!	!LO:HP:a
.	4BB-\	.	.	.	.	4B-\	.	.	[ <
.	4Cn\)	.	[	[	.	4A-\)	.	.	[[
*v	*v	*	*v	*v	*	*	*v	*v	*
*	*	*	*v	*v	*	*
=76||	=76||	=76||	=76||	=76||	=76||
*k[b-e-a-d-g-]	*	*	*k[b-e-a-d-g-]	*	*
*^	*	*	*^	*	*
*	*	*	*	*	*	*below	*
!	!	!	!LO:DY:b:rj	!	!	!	!LO:DY:b:rj
8F/	8D-\	.	f	8d-/	8A-\	Mo-	f
8G-/	8D-\	.	.	8e-/	8B-\	-ścia	.
4.d-^^/	4.D-\	.	.	4.a-^^/	4.f\	pan-	.
8A-/	8D-\	.	.	8f/	8d-\	-no,	.
=77	=77	=77	=77	=77	=77	=77	=77
8A-/	8D-\	.	.	8e-/	8c\	dłoń	.
8G-/	8D-\	.	.	8f/	8B-\	li-	.
4.F/	4D-\	.	.	4.A-/	4.A-\	-ljo-	.
.	4C\	.	.	.	.	.	.
8F/	.	.	.	16B-/LL	8A-\	-wą	.
.	.	.	.	16c/JJ	.	.	.
!!LO:LB:g=original
=78	=78	=78	=78	=78	=78	=78	=78
8.F/	8.BB-\	.	.	8.d-/	8.A-\	W mę-	.
16A-/	16BB-\	.	.	16f/	16d-\	-zkiej	.
8Gn/	8E-\	.	.	8f/	8d-\	dło-	.
8G/	8E-\	.	.	16e-/LL	8B-\	-ni	.
.	.	.	.	16d-/JJ	.	.	.
8E-/	16E-\LL	.	.	16c/LL	8Gn\	śmia-	.
.	16D-\JJ	.	.	16B-/JJ	.	.	.
16E-/LL	16C\LL	.	.	16c/LL	16A-\LL	-ło	.
16D-/JJ	16BB-\JJ	.	.	16d-/JJ	16B-\JJ	.	.
=79	=79	=79	=79	=79	=79	=79	=79
8.C/	8.AA-\	.	.	2.e-/	2.c\	złóż,	.
16E-/	16C\	dłoń	.	.	.	.	.
8E-/	8C\	smia-	.	.	.	.	.
8A-/	8E-\	-ło	.	.	.	.	.
8c/L	8A-\L	złóż	.	.	.	.	.
8B-/J	8G-\J	.	.	.	.	.	.
=80	=80	=80	=80	=80	=80	=80	=80
8.An/	8.F\	.	.	8.f/	8.c\	Idź	.
16B-/	16E-\	.	.	16g-/	16d-\	z wznie-	.
8B-/	8E-\	.	.	8g-/	8d-\	-sio-	.
8A/	8F\	.	.	8f/	8c\	-ną	.
8.B-^^/	8.G-\	.	.	8.e-^^/	8.c\	dum-	.
16A/	16F\	.	.	16f/	16c\	-nie,	.
!!LO:LB:g=original
=81	=81	=81	=81	=81	=81	=81	=81
8An/	8F\	.	.	8f/	8c\	idź	.
8F/	8AAn\	.	.	8e-/	8c\	z wznie-	.
8F/	8BB-\	.	.	8dn/	8B-\	-sio-	.
8A-X/	8F\	.	.	16c/LL	8B-\	-ną	.
.	.	.	.	16d/JJ	.	.	.
8B-/	8G-\	.	.	8e-/	8B-\	dum-	.
8B-/	8E-\	.	.	16f/LL	8e-\	-nie	.
.	.	.	.	16g-/JJ	.	.	.
=82	=82	=82	=82	=82	=82	=82	=82
(8A-/	(8F\	.	.	(8a-/	4.d-\	gło-	.
4G-/)	4G-\)	.	.	4b-/)	.	.	.
8A-/	8F\	.	.	8a-/	8d-\	-wą	.
8Gn/	8E-\	.	.	8f/	8d-\	I	.
8E-/	8BB-\	.	.	16e-/LL	8Gn\	ru-	.
.	.	.	.	16d-/JJ	.	.	.
=83	=83	=83	=83	=83	=83	=83	=83
8B-/	8AA-\	.	.	16B-/LL	8G-X\	-mień-	.
.	.	.	.	16c/JJ	.	.	.
8E-/	8AA-\	.	.	16g-/LL	8B-\	-cem	.
.	.	.	.	16f/JJ	.	.	.
2G-/	2AA-\	.	.	2e-/	2c\	z róż...	.
=84	=84	=84	=84	=84	=84	=84	=84
!	!	!	!	!	!	!	!LO:DY:a:rj
8F/	8D-\	Hej!	.	8.d-/	8.d-\	Hej,	f
8r	8ryy	.	.	.	.	.	.
.	.	.	.	16c/	16A-\	ka-	.
4r	4ryy	.	.	8d-/	8B-\	-pe-	.
.	.	.	.	8e-/	8c\	-lo	.
4r	4ryy	.	.	4en/	4c#X\	hej,	.
*v	*v	*	*	*	*	*	*
*	*	*	*v	*v	*	*
!!LO:LB:g=original
=85||	=85||	=85||	=85||	=85||	=85||
*k[]	*	*	*k[]	*	*
*^	*^	*^	*^	*	*
*	*	*above	*below	*	*	*	*	*	*
!	!	!	!	!LO:DY:a:rj	!LO:DY:b:rj	!	!	!	!
8.A/	4.AA\	Hej,	Hej,	f	f	4.e/	4.c#X\	a	.
16G#X/	.	ka-	.	.	.	.	.	.	.
4.F#X/	.	-pe-	.	.	.	.	.	.	.
.	8AA\	.	ka-	.	.	16d/LL	16B\LL	rzę-	.
.	.	.	.	.	.	16c#X/JJ	16A\JJ	.	.
.	8AA\	.	-pe-	.	.	8d/	8B\	-si-	.
8G#/	8AA\	-lo	-lo	.	.	8f#X/	8d\	-ście,	.
*	*	*	*	*v	*v	*	*	*	*
=86	=86	=86	=86	=86	=86	=86	=86	=86
4.A/	2AA\	rżnij,	rżnij,	.	4.e/	4.c#X\	Rżnij,	.
8C#X/	.	a	.	.	8A/	8A\	a	.
8E/	4AA\	hu-	a	.	8c#X/	8A\	hucz-	.
8F#X/	.	-cznie	.	.	8d/	8B\	-nie	.
*	*	*v	*v	*	*	*	*	*
=87	=87	=87	=87	=87	=87	=87	=87
*	*	*below	*	*	*	*	*
8A/	8AA\	w zgo-	.	4.e/	4.c#X\	hucz-	.
8F#X/	8AA\	-dny	.	.	.	.	.
4E/	4AA\	wtór	.	.	.	.	.
.	.	.	.	16d/LL	16B\LL	-nie	.
.	.	.	.	16c#X/JJ	16A\JJ	.	.
8A/	8A\	.	.	8d/	8B\	w zgod-	.
8A/	8Gn\	.	.	8e/	8c#\	-ny	.
=88	=88	=88	=88	=88	=88	=88	=88
*	*	*	*^	*	*	*	*^
4.A#X/	4.F#X\	.	.	.	4.f#X/	4.c#X\	wtór,	.	.
!	!	!	!LO:DY:b:rj	!	!	!	!	!LO:DY:b:rj	!
8F#X/	8E\	.	p	.	8c#X/	8A#X\	ka-	p	.
!	!	!	!LO:HP:a	!LO:HP:b	!	!	!	!LO:HP:a	!LO:HP:b
.	.	.	<	<	.	.	.	<	<
8F#/	8D#X\	.	.	.	8d#X/	8B\	-pe-	.	.
8F#/	8C#X\	.	[	[	8e/	8c#\	-lo	[	[
*	*	*	*v	*v	*	*	*	*v	*v
!!LO:LB:g=original
=89	=89	=89	=89	=89	=89	=89	=89
*	*	*above	*	*	*	*	*
8B/	8BB\	rżnij	.	4.f#X/	4.d#X\	rżnij,	.
8G#X/	8BB\	ka-	.	.	.	.	.
4F#X/	4BB\	-pe-	.	.	.	.	.
.	.	.	.	16e/LL	16c#X\LL	a	.
.	.	.	.	16d#X/JJ	16B\JJ	.	.
8G#/L	4BB\	-lo	.	8e/	8c#\	w zgod-	.
8A#X/J	.	.	.	8g#X/	8e\	-ny	.
=90	=90	=90	=90	=90	=90	=90	=90
*	*	*	*^	*	*	*	*
4.B/	4.BB\	rżnij,	.	.	4.f#X/	4.d#X\	wtór,	.
!	!	!	!LO:DY:a:rj	!	!	!	!	!LO:DY:rj:b
8B/	8B\	.	mf <	.	8d#X/	8B\	a	mf
!	!	!	!	!LO:HP:b	!	!	!	!LO:HP:b
.	.	.	.	<	.	.	.	<
8B/	8B\	.	.	.	8e/	8c#X\	w zgod-	.
8B/	8An\	.	[	[	8f#/	8d#\	-ny	[
*	*	*	*v	*v	*	*	*	*
=91	=91	=91	=91	=91	=91	=91	=91
2B/	(4Gn\	.	.	2gn/	2dn\	wtór	.
.	4Fn\)	.	.	.	.	.	.
!	!	!	!LO:DY:b:rj	!	!	!	!LO:DY:rj:b
8cn/	8E-X\	.	f	8a-X/	8e-X\	Kro-	f
8B-X/	8E-\	.	.	8g-X/	8d-X\	-czą	.
*v	*v	*	*	*	*	*	*
*	*	*	*v	*v	*	*
=92||	=92||	=92||	=92||	=92||	=92||
*k[b-e-a-d-g-]	*	*	*k[b-e-a-d-g-]	*	*
*^	*^	*	*^	*	*
(4An/	8F\	.	pa-	.	(4f/	(4c\	pa-	.
.	8E-\	.	-ry	.	.	.	.	.
8B-/)	4D-\	.	kro-	.	8g-/)	8d-\)	.	.
8A-X/	.	.	.	.	8f/	8d-\	-ry	.
8Gn/	4BB-\	.	-czą	.	8e-/	8d-\	kro-	.
8G/	.	.	.	.	8en/	8d-\	-czą	.
*	*	*v	*v	*	*	*	*	*
!!LO:LB:g=original
=93	=93	=93	=93	=93	=93	=93	=93
8A-/	8AA-\	.	.	8f/	8d-\	po-	.
8F/	8AA-\	.	.	8d-/	8A-\	-su-	.
4B-/	4AA-\	.	.	4g-/	4d-\	-wi-	.
8A-/L	4AA-\	.	.	8f/L	4c\	-ście	.
8G-/J	.	.	.	8e-/J	.	.	.
=94	=94	=94	=94	=94	=94	=94	=94
8F/	8D-\	.	.	8d-/	8A-\	Jak	.
8G-/	8D-\	.	.	8e-/	8B-\	kró-	.
4.d-/	4.D-\	.	.	4.a-/	4.f\	-lew-	.
8A-/	8F\	.	.	8f/	8d-\	-ski	.
=95	=95	=95	=95	=95	=95	=95	=95
4.A-/	4.A-\	.	.	4.e-/	4.c\	sznur,	.
8A-/	8AA-\	.	.	8f/	8c\	kró-	.
8G-/	8AA-\	.	.	8B-/	8B-\	-lew-	.
8G-/	8AA-\	.	.	8c/	8A-\	-ski	.
=96	=96	=96	=96	=96	=96	=96	=96
4F/	4D-\	.	.	4d-/	4A-\	sznur.	.
8F/	8D-\	.	.	8d-/	8A-\	Hej,	.
8G-/	8D-\	.	.	8e-/	8B-\	Pol-	.
8d-/	8D-\	.	.	8a-/	8f\	-skie-	.
8A-/	8D-\	.	.	8f/	8d-\	-go,	.
=97	=97	=97	=97	=97	=97	=97	=97
2d-/	2D-\	.	.	2a-/	2f\	hej!	.
!	!	!	!LO:DY:b:rj	!	!	!	!LO:DY:rj:b
8d-/	8d-\	.	ff	8d-/	8d-\	hej,	ff
8d-/	8d-\	.	.	8d-/	8d-\	Pol-	.
!!LO:LB:g=original
=98	=98	=98	=98	=98	=98	=98	=98
2.d-/	2.G-\	.	.	2.b-/	2.g-\	-skie-	.
=99	=99	=99	=99	=99	=99	=99	=99
2.c/	2.A-\	.	.	2.a-/	2.g-\	-go,	.
=100	=100	=100	=100	=100	=100	=100	=100
2d-/	2D-\	.	.	2a-/	2f\	hej,	.
8.A-/	8.D-\	.	.	8.f/	8.d-\	hej,	.
16A-/	16D-\	.	.	16f/	16d-\	Pol-	.
=101	=101	=101	=101	=101	=101	=101	=101
(4A-/	2D-\	.	.	(4f/	(4d-\	-skie-	.
4d-/)	.	.	.	4a-/)	4f\)	.	.
4A-/	4D-\	.	.	4f/	4d-\	-go,	.
=102	=102	=102	=102	=102	=102	=102	=102
[2.F/	[2.D-\	.	.	[2.d-/	[2.A-\	hej!	.
=103	=103	=103	=103	=103	=103	=103	=103
8F/]	8D-\]	.	.	8d-/]	8A-\]	.	.
8r	8ryy	.	.	8r	8ryy	.	.
4r	4ryy	.	.	4r	4ryy	.	.
4r	4ryy	.	.	4r	4ryy	.	.
*v	*v	*	*	*	*	*	*
*	*	*	*v	*v	*	*
==	==	==	==	==	==
*-	*-	*-	*-	*-	*-
!!!system-decoration: {(s1,s2)}
!!!RDF**kern: > = above
!!!RDF**kern: < = below
!!!ENC: Andrzej Kubiczek
!!!END: 2021-07-03
!!!ENC: Katarzyna Serwa
!!!END: 2021-05-27
